X: 2
A:Adam de la Halle
T:Hareu li maus d'amer
N: (written out)
M:3/4
L:1/4
Q:1/4=120
K:D dorian
%
V:1 clef=treble
V:2 clef=treble
V:3 clef=treble-8 middle=B,
%%MIDI program 1       70 bassoon
%%MIDI program 2       71 clarinet
%%MIDI program 3       72 piccolo
%
[V:1]     B  c2 |(c/B/4A/4) BA  | G  (A    G/F/)||  G   A2  ||
[V:2]     E  F2 |(F/E/4D/4) ED  | C  (D/^C/B,)  || ^C   D2  ||
[V:3]     G, F,2|  F,       E,2 | E, (D,   E,)  ||  E,  D,2 ||
w: 1.4.8.~Ha-reu  li        maus d'a- mer*  2.5.9.~M'o-chist.
%
[V:1]     B  c2 |(c/B/4A/4) BA  | G  (A    G/F/)||
[V:2]     E  F2 |(F/E/4D/4) ED  | C  (D/^C/B,)  ||
[V:3]     G, F,2|  F,       E,2 | E, (D,   E,)  ||
w: ~~3.~~~~Il me  fait      dé-  si-  rer.*
%
[V:1]     B  c2 |(c/B/4A/4) BA  | G  (A    G/F/)||
[V:2]     E  F2 |(F/E/4D/4) ED  | C  (D/^C/B,)  ||
[V:3]     G, F,2|  F,       E,2 | E, (D,   E,)  ||
w: 1.4.8.~Ha-reu  li        maus d'a- mer*
%
[V:1]     B  c2 |(c/B/4A/4) BA  | G  (A    G/F/)||  G   A2  ||
[V:2]     E  F2 |(F/E/4D/4) ED  | C  (D/^C/B,)  || ^C   D2  ||
[V:3]     G, F,2|  F,       E,2 | E, (D,   E,)  ||  E,  D,2 ||
w: ~~~6.~~~Par un douch     re-  gar- der*  ~~7.~~~Me  prist.
%
[V:1]     B  c2 |(c/B/4A/4) BA  | G  (A    G/F/)||  G   A2  ||
[V:2]     E  F2 |(F/E/4D/4) ED  | C  (D/^C/B,)  || ^C   D2  ||
[V:3]     G, F,2|  F,       E,2 | E, (D,   E,)  ||  E,  D,2 ||
w: 1.4.8.~Ha-reu  li        maus d'a- mer*  2.5.9.~M'o-chist.
